X:1
T:Title
%%score { ( 1 3 ) | ( 2 4 ) }
L:1/8
M:3/4
K:C
V:1 treble nm="Grand Piano"
V:3 treble 
V:2 bass 
V:4 bass 
V:1
 z2 z2[Q:1/4=100] [CE][DF] | [EG]3 [EG] [_E^F][=EG] | [CE]4 [EG][EG] | [FA]3 [FA] [Ac][FA] | %4
[M:2/4] [EG]4 |[M:1/4] [CE][DF] |[M:3/4] [EG]3 [EG] [Ec][GB] | A4 cA | G[Gc] [Fc]2 B2 | %9
[M:2/4] [Ec]4 |[M:9/8] [EG][FA][FB] [Ec]3 [EG]3 | [CE][DF][EG] [FA]3 [Fc]3 | %12
 [Ac][GB][FA] [^Fd]3 [DFA]3 |[M:21/16] [E^Fc][DFB]/-[DFB]/[CFA]G3/2-G3/2- G3- G z/ | %14
[M:9/8] [EG][FA][FB] [Ec]3 [EG]3 | [CE][DF][EG] [FA]3 [Fc]3 | %16
[M:5/4] [Ac][GB][FA] [EG]3 [Gc]3 [Gc] |[M:3/4] [Fd][CFA] [DFB] [Cc]3- | [Cc]4 z2 |] %19
V:2
 z2 z2 [C,G,][C,G,] | [C,C]3 [C,C] [C,C][C,C] | [C,G,]4 [C,C][C,C] | [F,C]3 [F,C] [F,C][F,C] | %4
[M:2/4] [C,C]4 |[M:1/4] [C,G,][C,G,] |[M:3/4] [C,C]3 [C,C] [C,G,][E,C] | [F,CF]4 [F,A,F][F,CF] | %8
 [G,CE][E,G,] [D,A,]2 [G,F]2 |[M:2/4] [C,G,]4 |[M:9/8] [C,C][C,C][C,C] [C,G,]3 [C,C]3 | %11
 [C,G,][C,G,][C,C] [F,C]3 [F,A,]3 | F,[F,G,][F,A,] [D,A,]3 D,3 | %13
[M:21/16] z3[K:treble] G,3/2-G,3/2-G,3/2- G,3 |[M:9/8][K:bass] [C,C][C,C][C,C] [C,G,]3 [C,C]3 | %15
 [C,G,][C,G,][C,C] [F,C]3 [F,A,]3 |[M:5/4] [F,A,][F,B,][F,C] [G,C]3 [E,G,]3 [E,C] | %17
[M:3/4] [D,B,]G, .G,2 z2 | F4 z2 |] %19
V:3
 x6 | x6 | x6 | x6 |[M:2/4] x4 |[M:1/4] x2 |[M:3/4] x6 | x6 | x6 |[M:2/4] x4 |[M:9/8] x9 | x9 | %12
 x9 |[M:21/16] z3 B,3/2-B,3/2-B,3/2- B,3 |[M:9/8] x9 | x9 |[M:5/4] x10 |[M:3/4] z2 z E3 | x6 |] %19
V:4
 x6 | x6 | x6 | x6 |[M:2/4] x4 |[M:1/4] x2 |[M:3/4] x6 | x6 | x6 |[M:2/4] x4 |[M:9/8] x9 | x9 | %12
 x9 |[M:21/16] D,D,/-D,/D,[K:treble] z3 F3/2- F3 |[M:9/8][K:bass] x9 | x9 |[M:5/4] x10 | %17
[M:3/4] z2 z C,3- | C,4 z2 |] %19

